X:1
T: Mrs. Forbes of Boharm's Strathspey
C:William Marshall
R:Strathspey
Q: 128
K:Bb
M:4/4
L:1/16
|:D2|B,B3 B3c d3c B3F|((3G2B2G2) ((3F2E2D2) ((3C2D2C2) ((3E2F2G2) |B,B3 B3c d3c B3F|GB3 F3D B,B,B,2 B,2D2|
B,B3 B3c d3c B3F|((3G2B2G2) ((3F2E2D2) ((3C2D2C2) ((3E2F2G2) |B,B3 B3c d3c B3F|GB3 F3D B,B,B,2 B,2e2|
dB3 fB3 gB3 fB3|e3c dB3 c3B ce3|dB3 fB3 efga b2d2|c3B cd3 BBB2 B2e2|
dB3 fB3 gB3 fB3|ec3 dB3 c3B ce3|d3c BF3 B2d2 B2F2|GB3 F3D B,B,B,2 B,2:|
